X: 1
T: Cnoc Na gClarac
R: slide
M: 12/8
L: 1/8
K: Dmaj
|: A2 A ABA G2 B A2 G| F2 D DED ~d2 d dcB| A2 A ABA G2 B A2 G |1 F2 D EDC D3 D/E/F/G/ :|2 F2 D EDC D3 EFG |
|: A2 d d2 =c A2 G F2 G| A2 d d2 =c ABA G3 | A2 d d2 =c A3 ABA | G3 GAB =c2 A B2 G :| 

